!!!OTL: Renren qixin touyizhuang
!!!ARE: Asia, China,ÿJiangsu Yancheng
!! III, 453
!!!SCT: C2019
!!!YEM: Copyright 1995, estate of Helmut Schaffrath.
**kern
*ICvox
*Ivox
*M2/4
*k[b-]
*F:
{4d
8c
8c
=1
4d
8g
8d
=2
2f}
=3
{8g
16a
16g
4d
=4
8.g
16a
8cc
8cc
=5
8.dd
16dd
8cc
8a
=6
8g
16a
16cc
8a
8g
=7
4.f
8g
=8
4d
4c}
=9
{8.c
16c
8d
8f
=10
8g
8g
8f
8g
=11
4a
8cc
8a
=12
4g
8g
8d
=13
4.f
8g
=14
16f
16g
8d
4c}
=15
{8f
8f
8d
8f
=16
8g
16a
16g
4d}
=17
{8.g
16a
8cc
8cc
=18
8.dd
16dd
8cc
8a
=19
8g
16a
16cc
8a
8g
=20
4.f
8g
=21
16f
16g
8d
4c}
=22
{16d
16ff
4c
8d
=23
8.f
16f
8.d
16f
=24
4g
8a
8g
=25
2f}
=26
{4c
8d
8f
=27
8g
4g
8a
=28
8g
8f
16d
16c
16d
16f
=29
2c}
=30
{4d
8c
8c
=31
4d
8g
8d
=32
2f}
==
!!!AGN: Haozi, Yangtiange. Gedangdao
!!!AMT: simple duple
!!!AIN: vox
!!!EED: Helmut Schaffrath
!!!EEV: 1.0
*-
